outputs/icons/device/brightness_sharp.svg

<svg xmlns="http://www.w3.org/2000/svg" width="1200" height="1200" fill="none"><g clip-path="url(#a)"><path fill="#000" d="m999.995 765.495 165.5-165.5-165.5-165.498v-234.5h-234.5l-165.5-165.5-165.498 165.5h-234.5v234.5l-165.5 165.498 165.5 165.5v234.5h234.5l165.498 165.5 165.5-165.5h234.5zm-400 134.5V299.997c165.5 0 300 134.5 300 299.998 0 165.5-134.5 300-300 300"/></g><defs><clipPath id="a"><path fill="#fff" d="M0 0h1200v1200H0z"/></clipPath></defs></svg>

<svg width="1200" height="1200" viewBox="0 0 1200 1200" fill="none" xmlns="http://www.w3.org/2000/svg"><g clip-path="url(#clip0_133_52)"><path d="M999.995 765.495L1165.495 599.995L999.995 434.497V199.997H765.495L599.995 34.497L434.497 199.997H199.997V434.497L34.497 599.995L199.997 765.495V999.995H434.497L599.995 1165.495L765.495 999.995H999.995V765.495ZM599.995 899.995V299.997C765.495 299.997 899.995 434.497 899.995 599.995C899.995 765.495 765.495 899.995 599.995 899.995Z" fill="black"/></g><defs><clipPath id="clip0_133_52"><path width="24" fill="white" d="M0 0H1200V1200H0V0z"/></clipPath></defs></svg>
